android/assets/www/img/angry.svg

<?xml version="1.0" encoding="utf-8"?>
<!-- Generated by IcoMoon.io -->
<!DOCTYPE svg PUBLIC "-//W3C//DTD SVG 1.1//EN" "http://www.w3.org/Graphics/SVG/1.1/DTD/svg11.dtd">
<svg version="1.1" xmlns="http://www.w3.org/2000/svg" xmlns:xlink="http://www.w3.org/1999/xlink" width="64" height="64" viewBox="0 0 64 64" style="fill: #ffffff">
<path d="M32 64c17.673 0 32-14.327 32-32s-14.327-32-32-32-32 14.327-32 32 14.327 32 32 32zM32 6c14.359 0 26 11.641 26 26s-11.641 26-26 26-26-11.641-26-26 11.641-26 26-26zM44.006 48.796c-2.448-4.072-6.909-6.796-12.006-6.796s-9.558 2.724-12.006 6.796l-5.146-3.087c3.498-5.817 9.87-9.709 17.152-9.709s13.654 3.892 17.152 9.709l-5.145 3.087zM47.94 17.515c0.268 1.072-0.384 2.157-1.455 2.425-1.102 0.278-2.408 0.758-3.559 1.334 0.666 0.714 1.073 1.672 1.073 2.725 0 2.209-1.791 4-4 4s-4-1.791-4-4c0-0.073 0.002-0.146 0.006-0.218 0.127-2.966 2.826-4.934 5.099-6.071 2.171-1.086 4.319-1.629 4.409-1.651 1.072-0.268 2.157 0.384 2.425 1.455zM16.060 17.515c0.268-1.072 1.354-1.723 2.425-1.455 0.090 0.023 2.238 0.566 4.409 1.651 2.274 1.137 4.973 3.105 5.099 6.071 0.004 0.072 0.006 0.145 0.006 0.218 0 2.209-1.791 4-4 4s-4-1.791-4-4c0-1.053 0.408-2.011 1.073-2.725-1.151-0.577-2.457-1.056-3.558-1.334-1.071-0.268-1.723-1.354-1.455-2.425z"></path>
</svg>

<svg xmlns="http://www.w3.org/2000/svg" width="64" height="64" viewBox="0 0 64 64" fill="#fff"><path d="M32 64c17.673 0 32-14.327 32-32S49.673 0 32 0 0 14.327 0 32s14.327 32 32 32zm0-58c14.359 0 26 11.641 26 26S46.359 58 32 58 6 46.359 6 32 17.641 6 32 6zm12.006 42.796C41.558 44.724 37.097 42 32 42s-9.558 2.724-12.006 6.796l-5.146-3.087C18.346 39.892 24.718 36 32 36s13.654 3.892 17.152 9.709l-5.145 3.087zm3.934-31.281a2 2 0 0 1-1.455 2.425 18.423 18.423 0 0 0-3.559 1.334 4 4 0 1 1-6.921 2.507c.127-2.966 2.826-4.934 5.099-6.071a23.982 23.982 0 0 1 4.409-1.651 2 2 0 0 1 2.425 1.455zm-31.88 0a2 2 0 0 1 2.425-1.455c.09.023 2.238.566 4.409 1.651 2.274 1.137 4.973 3.105 5.099 6.071a4 4 0 1 1-6.921-2.507 18.374 18.374 0 0 0-3.558-1.334 2 2 0 0 1-1.455-2.425z"/></svg>
